**kern	**kern
*part1	*part1
*staff2	*staff1
*I"Piano	*
*clefG2	*clefG2
*k[b-]	*k[b-]
=1	=1
*	*^
8F	8.bb-L	2ee
16r	.	.
16cKL	16aaJk	.
8b-J	4.gg	.
16r	.	.
16eKL	.	.
8ccJ	.	4rff
8r	8ccc	.
=	=	=
8F	8.aaL	4.cc
16r	.	.
16cKL	16ggJk	.
8aJ	4.ff	.
16r	.	8rdd
16eKL	.	.
8ccJ	.	4rdd
8r	8aa	.
=	=	=
4G 4d 4g	8.ggL	4bn 4ff
.	16dddJk	.
4c 4g 4cc	4ee 4gg 4ccc	4ryy
4r	8rdd	4rdd
.	8aa	.
=	=	=
8F	8ccc	4rdd
16r	16rdd	.
16cKL	16aaKL	.
8aJ	8cccJ	4.ee-X
16r	8rff	.
16fKL	.	.
8ccJ	8rff	.
8r	8fff	8rff
*	*v	*v
=	=
8B-	8ff 8ddd
16r	16r
*	*8va
16fKL	16bbb-KL
8ddJ	8bb-J
*	*X8va
16r	8r
16b-KL	.
8ffJ	8r
8r	8ddd
=	=
[4c 4a	8ff 8ccc
.	16r
.	16fffKL
4c] 4cc	8ffJ
.	16r
.	16aaKL
4c 4b-	8eeJ 8gg
.	16r
.	16ccc
=	=
4f 4a	2ff
*clefF4	*
4FF	.
8r	8r
==	==
*-	*-
!!!system-decoration: {(s1,s2)}
